X:1
T:Title
%%score { ( 1 3 ) | 2 }
L:1/8
M:4/4
K:C
V:1 treble nm="Grand Piano"
V:3 treble 
V:2 bass 
V:1
 z4 z2[Q:1/4=100] [EG][EA] | [EG]2 [Ec]2 [Ec]2 [FB][Gc] | B2 A2 A2 AB |[M:3/4] A2 D2 D2 | %4
[M:1/4] AB |[M:4/4] [EA]2 [CE]2 [CE]2 [EG][EA] | [EG]2 [Ec]2 [Ec]2 [FB][Gc] |[M:3/4] d2 c2 B2 | %8
[M:1/4] AA |[M:4/4] G2 c2 c2 B2 |[M:3/4] [Ec]6 |[M:1/4] [Ec][Fd] |[M:4/4] e4 z2 .d2 | %13
[M:3/4] c4 B2 |[M:1/4] de |[M:4/4] f2 f2 f2 [Gf]2 | e6 z2 | d4 z4 | c4 G2 z2 | %19
 [DGB]2 [Af]2 [Ge]2 [Fd]2 |[M:3/4] [Ec]6 |] %21
V:2
 z4 z2 [C,C][C,C] | [C,C]2 [C,G,]2 [C,G,]2 [D,G,][E,C] | [F,CF]2 [F,CF]2 [F,CF]2 [F,CF][F,CF] | %3
[M:3/4] [G,B,F]2 [G,B,]2 [G,B,]2 |[M:1/4] [G,B,F][G,B,F] | %5
[M:4/4][K:bass] [C,C]2 [C,G,]2 [C,G,]2 [C,C][C,C] | [C,C]2 [C,G,]2 [C,G,]2 [D,G,][E,C] | %7
[M:3/4] [F,A,F]2 [F,A,F]2 [F,CF]2 |[M:1/4] [^F,C_E][F,CE] | %9
[M:4/4][K:treble] [G,CE]2 [G,EG]2 [G,DF]2 [G,DF]2 |[M:3/4][K:bass] [C,C]6 |[M:1/4] [C,C][C,C] | %12
[M:4/4] [C,C]2 [C,C]2 [C,C]2 [C,C]2 |[M:3/4][K:treble] [G,DF]2 [G,D]2 [G,DF][G,D] | %14
[M:1/4] [G,B,G][G,CG] |[M:4/4] .[G,DG]2 .[B,DG]2 .[G,DG]2[K:bass] .[E,B,]2 | %16
 [C,C]2 [C,C]>[C,C] [C,C]2 [C,C][C,C] | [F,A,F]2 [F,A,]2 [F,DF]2 [F,A,F]2 | [E,G,]2 E,2 C,C,E,E, | %19
 G,2 [G,B,]2 [G,C]2 [G,B,]2 |[M:3/4] [C,C]6 |] %21
V:3
 x8 | x8 | x8 |[M:3/4] x6 |[M:1/4] x2 |[M:4/4] x8 | x8 |[M:3/4] x6 |[M:1/4] x2 |[M:4/4] x8 | %10
[M:3/4] x6 |[M:1/4] x2 |[M:4/4] G2 G2 [Ec]2 E-[Ec] |[M:3/4] z2 F2 z F |[M:1/4] x2 | %15
[M:4/4] z A, z A, z F, z D, | G2 G>G G2 [Ge][Ge] | z2 F2 A2 dd | G2 [G,G]2 [CE][CE][CGc][CGc] | %19
 x8 |[M:3/4] x6 |] %21

